X: 32915
T: Powerhouse
R: jig
M: 6/8
K: Gminor
|:Bc|d^cd =cBA|G^FG B2 c|d/d/d^c d=ef|cdB cAF|
GBB Bcc|dgg d2c|B/A/GG ^FGA|BG^FG:|
|:Ac|dgg g2a|bag afd|cff f2g|a^ga f=ga|
dgg g2a|bag afc|ded cBA|BG^F G:|

